X:323
T: Gongchandang Enqing Bihaishen
N: C1822
O: China, Ningxia Guyuan
S: I, 157]
N: Hui
R: Shange, Huar]
M: 2/4
L: 1/16
K: Bb
g2c2d2c2 | c2f2f4 | g4b2c2 | c12 | f4
f2cb | g2b2g2f2 | g2c2c2f2 | f8- | f4f2z2
c2f2f4 | g2cbc3b | c2f2f4f2cb | c2f2cbcbg4
fgbcc2f2 | cbcbgbgf | f4f4- | f8

